public/static/img/promo-logo.svg

<svg fill="none" height="40" viewBox="0 0 40 40" width="40" xmlns="http://www.w3.org/2000/svg"><path d="m20.0001 33.9423c-.5164.0155-1.0191-.1672-1.4051-.5106-.3859-.3433-.6258-.8214-.6704-1.3361l-.2223-1.8289c-2.2222-.6333-3.5244-2.2778-3.86-4.8889l-2-15.40889c-.4297-.06903-.8647-.10026-1.3-.09333-.64234-.00529-1.28239.07771-1.90218.24662v23.3689h-3.93333v-18.7844c0-2.5489 1.14222-4.3489 3.22889-5.09779v-1.21111c0-1.4.84889-2.34 2.11332-2.34 1.2645 0 2.0578.78667 2.2622 2.22222l.1556 1.12223c2.2778.64445 3.6267 2.47775 4.0133 5.45335l1.8467 14.8533c1.1053.2133 2.2413.2133 3.3467 0l1.8466-14.8511c.3867-2.9778 1.7356-4.8111 4.0134-5.45555l.1555-1.12223c.2045-1.42889 1.0067-2.22222 2.2622-2.22222 1.2556 0 2.1134.94 2.1134 2.34v1.21111c2.0866.74889 3.2289 2.54889 3.2289 5.09779v18.7844h-3.9289v-23.3711c-.6198-.16876-1.2599-.25176-1.9023-.24664-.4352-.00693-.8702.0243-1.3.09333l-2 15.41111c-.3288 2.5645-1.6622 4.2489-3.86 4.8889l-.2222 1.8333c-.0343.5191-.272 1.0037-.6614 1.3486s-.8992.5223-1.4186.4937zm-1.58-3.4978.2 1.5755c.024.3439.1821.6647.4402.8933.258.2285.5955.3467.9398.329.172.0123.3448-.01.508-.0656s.3136-.1434.4423-.2582.233-.2543.3068-.4101c.0738-.1559.1156-.325.1229-.4973l.2-1.5777c-1.0463.1718-2.1137.1718-3.16 0zm13.6445 2.3578h2.5289v-18.0956c0-2.16-.8712-3.6511-2.5289-4.3467zm-26.6667 0h2.53778v-22.4423c-1.65778.6956-2.52889 2.1867-2.52889 4.3467zm7.1711-22.6423 1.9578 15.1267c.2822 2.1889 1.3133 3.6044 3.0711 4.2222l-1.82-14.5733c-.3267-2.5689-1.38-4.1378-3.2089-4.7756zm14.8622 0c-1.8289.6378-2.8889 2.2067-3.2155 4.7778l-1.8111 14.5622c1.7555-.6177 2.7889-2.0333 3.0689-4.2222zm-18.79552-.77331c.62262-.15147 1.26145-.2261 1.90222-.22222.4019-.0042.8036.01956 1.2022.07111l-.1222-.87333c-.1533-1.07112-.68-1.61334-1.5689-1.61334-.88888 0-1.41332.62889-1.41332 1.64zm20.82662-.22222c.6408-.00388 1.2796.07075 1.9023.22222v-.98889c0-1.01111-.5423-1.64-1.4134-1.64s-1.4155.54222-1.5689 1.61333l-.1222.87334c.3986-.05155.8003-.07532 1.2022-.07111z" fill="#fff"/></svg>

<svg width="40" height="40" viewBox="0 0 40 40" fill="none" xmlns="http://www.w3.org/2000/svg">
<path d="M20.0001 33.9423C19.4837 33.9578 18.981 33.7751 18.595 33.4317C18.2091 33.0884 17.9692 32.6103 17.9246 32.0956L17.7023 30.2667C15.4801 29.6334 14.1779 27.9889 13.8423 25.3778L11.8423 9.96891C11.4126 9.89988 10.9776 9.86865 10.5423 9.87558C9.89996 9.87029 9.25991 9.95329 8.64012 10.1222V33.4911H4.70679V14.7067C4.70679 12.1578 5.84901 10.3578 7.93568 9.60891V8.3978C7.93568 6.9978 8.78457 6.0578 10.049 6.0578C11.3135 6.0578 12.1068 6.84447 12.3112 8.28002L12.4668 9.40225C14.7446 10.0467 16.0935 11.88 16.4801 14.8556L18.3268 29.7089C19.4321 29.9222 20.5681 29.9222 21.6735 29.7089L23.5201 14.8578C23.9068 11.88 25.2557 10.0467 27.5335 9.40225L27.689 8.28002C27.8935 6.85113 28.6957 6.0578 29.9512 6.0578C31.2068 6.0578 32.0646 6.9978 32.0646 8.3978V9.60891C34.1512 10.3578 35.2935 12.1578 35.2935 14.7067V33.4911H31.3646V10.12C30.7448 9.95124 30.1047 9.86824 29.4623 9.87336C29.0271 9.86643 28.5921 9.89766 28.1623 9.96669L26.1623 25.3778C25.8335 27.9423 24.5001 29.6267 22.3023 30.2667L22.0801 32.1C22.0458 32.6191 21.8081 33.1037 21.4187 33.4486C21.0293 33.7935 20.5195 33.9709 20.0001 33.9423ZM18.4201 30.4445L18.6201 32.02C18.6441 32.3639 18.8022 32.6847 19.0603 32.9133C19.3183 33.1418 19.6558 33.26 20.0001 33.2423C20.1721 33.2546 20.3449 33.2323 20.5081 33.1767C20.6713 33.1211 20.8217 33.0333 20.9504 32.9185C21.0791 32.8037 21.1834 32.6642 21.2572 32.5084C21.331 32.3525 21.3728 32.1834 21.3801 32.0111L21.5801 30.4334C20.5338 30.6052 19.4664 30.6052 18.4201 30.4334V30.4445ZM32.0646 32.8023H34.5935V14.7067C34.5935 12.5467 33.7223 11.0556 32.0646 10.36V32.8023ZM5.3979 32.8023H7.93568V10.36C6.2779 11.0556 5.40679 12.5467 5.40679 14.7067L5.3979 32.8023ZM12.569 10.16L14.5268 25.2867C14.809 27.4756 15.8401 28.8911 17.5979 29.5089L15.7779 14.9356C15.4512 12.3667 14.3979 10.7978 12.569 10.16ZM27.4312 10.16C25.6023 10.7978 24.5423 12.3667 24.2157 14.9378L22.4046 29.5C24.1601 28.8823 25.1935 27.4667 25.4735 25.2778L27.4312 10.16ZM8.63568 9.38669C9.2583 9.23522 9.89713 9.16059 10.5379 9.16447C10.9398 9.16027 11.3415 9.18403 11.7401 9.23558L11.6179 8.36225C11.4646 7.29113 10.9379 6.74891 10.049 6.74891C9.16012 6.74891 8.63568 7.3778 8.63568 8.38891V9.38669ZM29.4623 9.16447C30.1031 9.16059 30.7419 9.23522 31.3646 9.38669V8.3978C31.3646 7.38669 30.8223 6.7578 29.9512 6.7578C29.0801 6.7578 28.5357 7.30002 28.3823 8.37113L28.2601 9.24447C28.6587 9.19292 29.0604 9.16915 29.4623 9.17336V9.16447Z" fill="white"/>
</svg>
